source/img/vacancies/vac-vector-3.svg

<svg width="139" height="163" viewBox="0 0 139 163" fill="none" xmlns="http://www.w3.org/2000/svg">
<path d="M67.3215 63.3692C70.2454 63.9817 73.1222 62.1557 73.7474 59.2916C74.3727 56.4276 72.5085 53.6097 69.5846 52.9972C66.6607 52.3848 63.784 54.2107 63.1587 57.0748C62.534 59.9394 64.3976 62.7573 67.3215 63.3692Z" stroke="black" stroke-width="2" stroke-miterlimit="10"/>
<path d="M84.8759 63.8191C84.1954 62.4187 82.44 61.8694 80.9905 62.4939L72.0048 66.3669H65.5207L55.602 63.2932C54.0927 62.8255 52.4082 63.557 51.8853 65.0207C51.3444 66.5356 52.1907 68.1781 53.7419 68.659L63.072 71.5504C63.0528 71.7247 63.0417 71.9008 63.0406 72.0797C63.0406 72.0797 63.1208 81.8267 63.115 81.9446L61.9896 97.2005C61.9128 98.7632 63.1429 100.091 64.7384 100.167C64.7861 100.168 64.8332 100.17 64.8803 100.17C66.4129 100.17 67.6919 98.99 67.7664 97.4739L68.43 85.6354C68.4341 85.4673 68.6895 85.4662 68.6953 85.6343L69.4468 97.5201C69.5456 99.0191 70.8177 100.17 72.3299 100.17C72.3927 100.17 72.4561 100.168 72.5195 100.164C74.1132 100.063 75.3219 98.716 75.2184 97.1543L73.7869 81.7413C73.7759 81.5709 73.7817 72.1577 73.7817 72.1577C73.7829 72.0364 73.773 71.9167 73.766 71.7971C73.7701 71.7954 73.7736 71.7942 73.7776 71.7925L83.4305 67.6318C84.9195 66.9902 85.5808 65.2685 84.8759 63.8191Z" stroke="black" stroke-width="2" stroke-miterlimit="10"/>
<path d="M39.2145 32.0341C43.1531 32.0341 46.3459 28.8951 46.3459 25.0229C46.3459 21.1507 43.1531 18.0117 39.2145 18.0117C35.2759 18.0117 32.083 21.1507 32.083 25.0229C32.083 28.8951 35.2759 32.0341 39.2145 32.0341Z" stroke="black" stroke-width="2" stroke-miterlimit="10"/>
<path d="M53.9337 42.0743C53.1782 37.9255 49.4121 35.0603 44.7334 35.0603C44.6961 35.0603 44.6583 35.0609 44.6211 35.0609L34.3919 35.0119C34.3715 35.0119 34.3506 35.0113 34.3296 35.0124C29.5881 35.0728 25.9244 37.9329 25.209 42.1563L21.7476 63.7146C21.4504 65.5656 22.7417 67.3022 24.6314 67.5933C26.5229 67.8827 28.294 66.6196 28.5918 64.7686L31.4226 47.1353L31.7797 61.2738C31.7844 61.4635 31.8047 61.6493 31.8228 61.8356C31.8111 61.929 31.7995 62.0224 31.7948 62.1182L30.2157 95.994C30.1232 97.9762 31.689 99.6563 33.7125 99.7463C33.7695 99.7492 33.8259 99.7503 33.8829 99.7503C35.8314 99.7503 37.4542 98.2479 37.5443 96.3216L38.8181 68.9778C39.1811 69.0262 39.5481 69.0598 39.9238 69.0598C39.9919 69.0598 40.0605 69.0592 40.1291 69.0575C40.4287 69.0501 40.7236 69.0251 41.0144 68.9869L42.1637 96.6857C42.244 98.6188 43.8691 100.133 45.8257 100.133C45.8757 100.133 45.9263 100.132 45.9775 100.13C48.0016 100.049 49.5755 98.3767 49.4929 96.3946L48.0883 62.5449C48.0801 62.3535 48.0528 62.1677 48.0161 61.9854C48.058 61.6225 48.0848 61.255 48.0749 60.8796L47.705 46.2385L51.695 66.2163C52.0184 67.8355 53.4672 68.959 55.0906 68.959C55.311 68.959 55.535 68.9379 55.7595 68.8952C57.637 68.5351 58.8613 66.7524 58.4937 64.9139L53.9337 42.0743Z" stroke="black" stroke-width="2" stroke-miterlimit="10"/>
<path d="M99.9372 31.982C103.651 31.982 106.662 29.0331 106.662 25.3953C106.662 21.7576 103.651 18.8086 99.9372 18.8086C96.2235 18.8086 93.2129 21.7576 93.2129 25.3953C93.2129 29.0331 96.2235 31.982 99.9372 31.982Z" stroke="black" stroke-width="2" stroke-miterlimit="10"/>
<path d="M121.232 63.4511L110.959 41.2155C110.944 41.1836 110.929 41.1517 110.913 41.1203C108.882 37.0849 105.919 35.0538 102.074 35.0994L98.3589 35.0977C98.3444 35.0977 98.3298 35.0977 98.3147 35.0982C94.6103 35.1449 91.2909 37.5048 89.6384 41.2616L79.0148 63.3845C78.2488 64.9803 78.9479 66.8826 80.5771 67.6335C82.2068 68.385 84.1483 67.6991 84.9149 66.1032L92.2383 50.8537L92.2453 51.1283L88.8404 74.5188C88.6677 75.9146 88.1826 77.139 91.7352 77.139H92.7624L91.7346 96.3966C91.6526 98.1588 93.0439 99.6521 94.8429 99.7324C94.8935 99.7347 94.9435 99.7358 94.9941 99.7358C96.7263 99.7358 98.1687 98.4004 98.2484 96.6883L99.2895 77.139H101.959L102.886 96.6724C102.957 98.3901 104.402 99.7358 106.141 99.7358C106.185 99.7358 106.23 99.7353 106.276 99.733C108.075 99.6612 109.474 98.1748 109.401 96.4126L108.485 77.1384H109.702C113.416 77.1384 112.77 75.9135 112.597 74.5182L108.568 50.7933L108.568 50.7597L115.293 66.0856C115.838 67.2649 117.024 67.9628 118.265 67.9628C118.715 67.9628 119.172 67.8711 119.608 67.678C121.247 66.9504 121.975 65.0583 121.232 63.4511Z" stroke="black" stroke-width="2" stroke-miterlimit="10"/>
<path d="M92.7607 77.1367H108.484" stroke="black" stroke-width="2" stroke-miterlimit="10"/>
<g opacity="0.8">
<path d="M15.2646 152.837H50.1567L106.289 138.824L134.683 120.621C137.867 118.526 138.325 114.078 135.62 111.401C133.592 109.393 130.387 109.069 128.01 110.645L106.856 124.767H67.6027H80.6872" stroke="black" stroke-width="2" stroke-miterlimit="10"/>
<path d="M90.6758 124.767L112.723 110.667C115.122 109.091 118.306 109.394 120.334 111.423C121.25 112.33 121.817 113.453 122.013 114.619" stroke="black" stroke-width="2" stroke-miterlimit="10"/>
<path d="M0 129.086H15.2653L15.2653 161.475H0" stroke="black" stroke-width="2" stroke-miterlimit="10"/>
<path d="M19.627 129.087H26.1692L46.5374 114.749C48.8708 112.849 51.7931 111.812 54.8243 111.812H91.5918V116.131C91.5918 120.903 87.6882 124.768 82.8688 124.768H67.6035" stroke="black" stroke-width="2" stroke-miterlimit="10"/>
<path d="M2.18066 150.68L2.18066 154.998" stroke="black" stroke-width="2" stroke-miterlimit="10"/>
</g>
<g opacity="0.8">
<path d="M7.5791 102.141H12.5533" stroke="#13325F" stroke-width="3" stroke-miterlimit="10"/>
<path d="M17.5273 102.141H22.5015" stroke="#13325F" stroke-width="3" stroke-miterlimit="10"/>
<path d="M15.04 104.605V109.531" stroke="#13325F" stroke-width="3" stroke-miterlimit="10"/>
<path d="M15.04 94.7539V99.679" stroke="#13325F" stroke-width="3" stroke-miterlimit="10"/>
</g>
</svg>

<svg width="139" height="163" fill="none" xmlns="http://www.w3.org/2000/svg"><path d="M67.322 63.37c2.923.612 5.8-1.214 6.425-4.078.626-2.864-1.239-5.682-4.162-6.295-2.924-.612-5.801 1.214-6.426 4.078-.625 2.864 1.239 5.682 4.163 6.294z" stroke="#000" stroke-width="2" stroke-miterlimit="10"/><path d="M84.876 63.82c-.68-1.401-2.436-1.95-3.886-1.326l-8.985 3.873H65.52l-9.919-3.074c-1.51-.468-3.194.264-3.717 1.728-.54 1.515.306 3.157 1.857 3.638l9.33 2.891c-.02.175-.03.35-.031.53 0 0 .08 9.747.074 9.865L61.99 97.2c-.077 1.562 1.153 2.89 2.748 2.966l.142.003c1.533 0 2.812-1.18 2.886-2.696l.664-11.839c.004-.168.26-.169.265 0l.752 11.885c.099 1.5 1.37 2.65 2.883 2.65.063 0 .126-.002.19-.006 1.593-.101 2.802-1.448 2.698-3.01L73.787 81.74c-.011-.17-.005-9.583-.005-9.583 0-.122-.009-.241-.016-.36.004-.003.008-.004.012-.005l9.652-4.161c1.49-.642 2.15-2.364 1.446-3.813zM39.215 32.034c3.938 0 7.13-3.139 7.13-7.011 0-3.872-3.192-7.011-7.13-7.011-3.94 0-7.132 3.139-7.132 7.01 0 3.873 3.193 7.012 7.132 7.012z" stroke="#000" stroke-width="2" stroke-miterlimit="10"/><path d="M53.934 42.074c-.756-4.148-4.522-7.014-9.2-7.014h-.113l-10.23-.048h-.061c-4.742.06-8.406 2.92-9.121 7.144l-3.461 21.559c-.298 1.85.994 3.587 2.883 3.878 1.892.29 3.663-.973 3.96-2.824l2.832-17.634.357 14.139c.004.19.025.375.043.562a3.734 3.734 0 00-.028.282l-1.58 33.876c-.092 1.982 1.474 3.662 3.497 3.752.057.003.114.004.17.004 1.95 0 3.572-1.502 3.662-3.428l1.274-27.344a8.336 8.336 0 001.311.08c.3-.008.595-.033.885-.071l1.15 27.699c.08 1.933 1.705 3.447 3.662 3.447l.151-.003c2.025-.081 3.599-1.753 3.516-3.735l-1.405-33.85a3.61 3.61 0 00-.072-.56c.042-.362.069-.73.059-1.105l-.37-14.642 3.99 19.978c.323 1.62 1.772 2.743 3.396 2.743.22 0 .444-.021.669-.064 1.877-.36 3.101-2.143 2.734-3.981l-4.56-22.84zm46.003-10.092c3.714 0 6.725-2.949 6.725-6.587 0-3.637-3.011-6.586-6.725-6.586-3.713 0-6.724 2.949-6.724 6.586 0 3.638 3.01 6.587 6.724 6.587zm21.295 31.469l-10.273-22.236-.046-.095c-2.031-4.035-4.994-6.066-8.839-6.02l-3.715-.002h-.044c-3.705.047-7.024 2.407-8.677 6.164L79.015 63.385c-.766 1.595-.067 3.498 1.562 4.248 1.63.752 3.571.066 4.338-1.53l7.323-15.25.007.275-3.405 23.39c-.172 1.397-.657 2.621 2.895 2.621h1.027l-1.027 19.258c-.082 1.762 1.309 3.255 3.108 3.335.05.003.1.004.151.004 1.732 0 3.175-1.336 3.254-3.048L99.29 77.14h2.67l.927 19.533c.071 1.718 1.516 3.064 3.255 3.064.044 0 .089 0 .135-.003 1.799-.072 3.198-1.558 3.125-3.32l-.916-19.275h1.217c3.714 0 3.068-1.225 2.895-2.62l-4.029-23.725v-.033l6.725 15.326c.545 1.179 1.731 1.877 2.972 1.877.45 0 .907-.092 1.343-.285 1.639-.728 2.367-2.62 1.624-4.227zM92.76 77.137h15.724" stroke="#000" stroke-width="2" stroke-miterlimit="10"/><g opacity=".8" stroke="#000" stroke-width="2" stroke-miterlimit="10"><path d="M15.265 152.837h34.892l56.132-14.013 28.394-18.203c3.184-2.095 3.642-6.543.937-9.22-2.028-2.008-5.233-2.332-7.61-.756l-21.154 14.122H67.603h13.084"/><path d="M90.676 124.767l22.047-14.1c2.399-1.576 5.583-1.273 7.611.756a5.872 5.872 0 011.679 3.196M0 129.086h15.265v32.389H0m19.627-32.388h6.542l20.368-14.338a13.11 13.11 0 018.287-2.937h36.768v4.319c0 4.772-3.904 8.637-8.723 8.637H67.603M2.18 150.68v4.318"/></g><path d="M7.58 102.141h4.973m4.974 0h4.974m-7.461 2.464v4.926m0-14.777v4.925" opacity=".8" stroke="#13325F" stroke-width="3" stroke-miterlimit="10"/></svg>
